packages/foundations/assets/icons/functional/images/medical/mask_20.svg

<svg width="20" height="20" viewBox="0 0 20 20" fill="none" xmlns="http://www.w3.org/2000/svg">
<g clip-path="url(#clip0_186_217)">
<path fill-rule="evenodd" clip-rule="evenodd" d="M4.07125 12.0068C5.29464 11.2225 7.7728 10.4382 10 10.4382C12.7918 10.4382 14.8308 11.348 16.0542 12.0068H16.9963C17.5295 12.0068 18.0001 12.4458 18.0001 13.0106C18.0001 13.5751 17.5295 14.0144 16.9963 14.0144H16.2111C15.1759 16.4611 12.6977 18.061 10 17.9982C7.30226 17.9668 4.82411 16.4611 3.78893 14.0144H3.00375C2.43911 14.0144 1.99994 13.5751 1.99994 13.0106C1.99994 12.4458 2.43911 12.0068 3.00375 12.0068H4.07125ZM3.06744 8.68156C3.06744 4.98011 6.20435 2 10.0627 2C13.9211 2 17.058 4.98011 17.058 8.68156C17.058 9.2463 16.6189 9.68537 16.0542 9.68537C15.4896 9.68537 15.0504 9.2463 15.0504 8.68156C15.0504 6.1094 12.8232 4.03894 10.0627 4.03894C7.33363 4.03894 5.10643 6.1094 5.10643 8.68156C5.10643 9.2463 4.63589 9.68537 4.07125 9.68537C3.53798 9.68537 3.06744 9.2463 3.06744 8.68156ZM5.76518 13.4811C6.58077 15.0808 8.21196 15.9906 10 16.022C11.788 16.0533 13.4192 15.1123 14.2348 13.5125C12.886 12.8223 11.443 12.4773 10 12.4458C8.55702 12.4773 7.17679 12.8851 5.76518 13.4811Z" fill="#1A1C1F"/>
</g>
<defs>
<clipPath id="clip0_186_217">
<rect width="20" height="20" fill="white"/>
</clipPath>
</defs>
</svg>

<svg xmlns="http://www.w3.org/2000/svg" width="20" height="20" fill="none"><g clip-path="url(#a)"><path fill="#1A1C1F" fill-rule="evenodd" d="M4.071 12.007c1.224-.784 3.702-1.569 5.929-1.569 2.792 0 4.83.91 6.054 1.569h.942A1.01 1.01 0 0 1 18 13.01a1.01 1.01 0 0 1-1.004 1.003h-.785c-1.035 2.447-3.513 4.047-6.211 3.984-2.698-.031-5.176-1.537-6.211-3.984h-.785A.99.99 0 0 1 2 13.011a.99.99 0 0 1 1.004-1.004zM3.067 8.682C3.067 4.98 6.204 2 10.063 2c3.858 0 6.995 2.98 6.995 6.682a.99.99 0 0 1-1.004 1.003.99.99 0 0 1-1.004-1.003c0-2.573-2.227-4.643-4.987-4.643-2.73 0-4.957 2.07-4.957 4.643 0 .564-.47 1.003-1.035 1.003a1.01 1.01 0 0 1-1.004-1.003m2.698 4.8c.816 1.599 2.447 2.509 4.235 2.54s3.42-.91 4.235-2.51A9.7 9.7 0 0 0 10 12.446c-1.443.031-2.823.44-4.235 1.035" clip-rule="evenodd"/></g><defs><clipPath id="a"><path fill="#fff" d="M0 0h20v20H0z"/></clipPath></defs></svg>
